X:1
T:小城故事
C:zhiming@vmiis.com
%%composerfont 10
M:4/4
L:1/8
Q:1/4=80
K:C
V:1
%%MIDI program 26
e2>g2 agac'|ag-g6|g2>a2 edeg|ed-d6|
d2>e2g2c'2|a2ac' a2g2|g2gd e2ed|c8|
cAcd e4|d>eAcG4|Acde gec'a|g8|
c'2c'a g2ga|g2ge d4|g2ga e2d2|c8|
